svg/transport/oil_line.svg

<?xml version="1.0" encoding="UTF-8"?>
<svg width="24px" height="24px" viewBox="0 0 24 24" version="1.1" xmlns="http://www.w3.org/2000/svg" xmlns:xlink="http://www.w3.org/1999/xlink">
    <title>oil_line</title>
    <g id="页面-1" stroke="none" stroke-width="1" fill="none" fill-rule="evenodd">
        <g id="Transport" transform="translate(-96.000000, -192.000000)">
            <g id="oil_line" transform="translate(96.000000, 192.000000)">
                 <path d="M24,0 L24,24 L0,24 L0,0 L24,0 Z M12.5934901,23.257841 L12.5819402,23.2595131 L12.5108777,23.2950439 L12.4918791,23.2987469 L12.4918791,23.2987469 L12.4767152,23.2950439 L12.4056548,23.2595131 C12.3958229,23.2563662 12.3870493,23.2590235 12.3821421,23.2649074 L12.3780323,23.275831 L12.360941,23.7031097 L12.3658947,23.7234994 L12.3769048,23.7357139 L12.4804777,23.8096931 L12.4953491,23.8136134 L12.4953491,23.8136134 L12.5071152,23.8096931 L12.6106902,23.7357139 L12.6232938,23.7196733 L12.6232938,23.7196733 L12.6266527,23.7031097 L12.609561,23.275831 C12.6075724,23.2657013 12.6010112,23.2592993 12.5934901,23.257841 L12.5934901,23.257841 Z M12.8583906,23.1452862 L12.8445485,23.1473072 L12.6598443,23.2396597 L12.6498822,23.2499052 L12.6498822,23.2499052 L12.6471943,23.2611114 L12.6650943,23.6906389 L12.6699349,23.7034178 L12.6699349,23.7034178 L12.678386,23.7104931 L12.8793402,23.8032389 C12.8914285,23.8068999 12.9022333,23.8029875 12.9078286,23.7952264 L12.9118235,23.7811639 L12.8776777,23.1665331 C12.8752882,23.1545897 12.8674102,23.1470016 12.8583906,23.1452862 L12.8583906,23.1452862 Z M12.1430473,23.1473072 C12.1332178,23.1423925 12.1221763,23.1452606 12.1156365,23.1525954 L12.1099173,23.1665331 L12.0757714,23.7811639 C12.0751323,23.7926639 12.0828099,23.8018602 12.0926481,23.8045676 L12.108256,23.8032389 L12.3092106,23.7104931 L12.3186497,23.7024347 L12.3186497,23.7024347 L12.3225043,23.6906389 L12.340401,23.2611114 L12.337245,23.2485176 L12.337245,23.2485176 L12.3277531,23.2396597 L12.1430473,23.1473072 Z" id="MingCute" fill-rule="nonzero"></path>
                <path d="M10,4 C10,2.89543 10.8954,2 12,2 L15,2 C16.1046,2 17,2.89543 17,4 L17,5 C18.6569,5 20,6.34315 20,8 L20,19 C20,20.6569 18.6569,22 17,22 L7,22 C5.34315,22 4,20.6569 4,19 L4,10.6667 C4,10.0176 4.21053,9.38595 4.6,8.86667 L6.6,6.2 C7.16656,5.44458 8.05573,5 9,5 L10,5 L10,4 Z M15,4 L15,5 L12,5 L12,4 L15,4 Z M8.2,7.4 C8.38885,7.14819 8.68524,7 9,7 L11,7 L16,7 L17,7 C17.5523,7 18,7.44772 18,8 L18,19 C18,19.5523 17.5523,20 17,20 L7,20 C6.44772,20 6,19.5523 6,19 L6,10.6667 C6,10.4503 6.07018,10.2398 6.2,10.0667 L8.2,7.4 Z M10,12 C10,11.4477 9.55228,11 9,11 C8.44772,11 8,11.4477 8,12 L8,17 C8,17.5523 8.44772,18 9,18 C9.55228,18 10,17.5523 10,17 L10,12 Z" id="形状" fill="#09244B"></path>
            </g>
        </g>
    </g>
</svg>

<svg xmlns="http://www.w3.org/2000/svg" width="24" height="24"><g fill="none" fill-rule="evenodd"><path d="M24 0v24H0V0h24ZM12.593 23.258l-.011.002-.071.035-.02.004-.014-.004-.071-.035c-.01-.004-.019-.001-.024.005l-.004.01-.017.428.005.02.01.013.104.074.015.004.012-.004.104-.074.012-.016.004-.017-.017-.427c-.002-.01-.009-.017-.017-.018Zm.265-.113-.013.002-.185.093-.01.01-.003.011.018.43.005.012.008.007.201.093c.012.004.023 0 .029-.008l.004-.014-.034-.614c-.003-.012-.01-.02-.02-.022Zm-.715.002a.023.023 0 0 0-.027.006l-.006.014-.034.614c0 .012.007.02.017.024l.015-.002.201-.093.01-.008.004-.011.017-.43-.003-.012-.01-.01-.184-.092Z"/><path fill="#09244B" d="M10 4a2 2 0 0 1 2-2h3a2 2 0 0 1 2 2v1a3 3 0 0 1 3 3v11a3 3 0 0 1-3 3H7a3 3 0 0 1-3-3v-8.333a3 3 0 0 1 .6-1.8l2-2.667A3 3 0 0 1 9 5h1V4Zm5 0v1h-3V4h3ZM8.2 7.4A1 1 0 0 1 9 7h8a1 1 0 0 1 1 1v11a1 1 0 0 1-1 1H7a1 1 0 0 1-1-1v-8.333a1 1 0 0 1 .2-.6l2-2.667ZM10 12a1 1 0 1 0-2 0v5a1 1 0 1 0 2 0v-5Z"/></g></svg>
